X: 2038
T: Black and White Rag
B: steve tunes
M:4/4
L:1/8
Q: 1/4=100
K:D
V:1 
%Q:480
xd2 d2 c2 |: "D"=cdfc dfcd | f=cd(f f)cdc |
"G"^ABeA BeAB | e^AB(e e)d=cB | "D"(3=cdc B(c c)B c2 |
A^GAB =cAFD | "G"gfag B=c^cd | BGD(d d2)dc |
"D"=cdfc dfcd | f=cd(f f)cdc | "G"^ABeA BeAB |
e^AB(e e)d=cB | "E"E2 GB ed=cB | "Am"A^GA=c edcA |
"G"BDG"D"(B B)F A2 :|[1 G2 d2 d2 c2 :|[2 G2 E2 =F2 ^F2 ||
|:"C"G2 F(G G)F G2 | "A"e2 ^d(e e)d e2 | "D"d2 c(d d)c d2 | A6 G2 |
"G7"=FGBF GBFG | B=FG(B B)AGF | "C"^DEAD "Gdim"EADE | "D7"A^DE(A "G"A)=cAE |
"C"G2 F(G G)F G2 | "A"e2 ^d(e e)d e2 | "D"d2 c(d d)c d2 | A6 (3DEF |
"G"GAB=c de=fg | ag=fe d=cBA | GFG(e e)2 Bd | =c8:||
|: "G"BdgG BdDG | BB,D(G G)BdA | "D"[A2F2] F=C (3FGF C2 | FG^G(A A)G A2 |
=cdfA ceFA | dFA(=c c)dfd | "G"B2 [G,D]G (3B=cB G2 | B=c^c(d d)=cBA |
"E"^GBeB GEB,E | ^GB,EG B,4 | "A"AceE AcCE | AA,CE A,4 |
"G"BdgG BdDG | BB,D(G G)BdB | "D"FGA(d d)A (3BdB | "G"[B8G8] :|
W: played A A B B A A C C
% abcbook-tune_id 6298c245a52da9379543cbb0


% abcbook-boost 0
% abcbook-tablature 
% abcbook-transpose 
% abcbook-lastupdated 1654966559475
% abcbook-soundfonts 
% abcbook-repeats 3


